!!!COM:	Josquin des Prez
!!!CDT:	~1450-1521/08/27
!!!OPR:	Missa Sine nomine
!!!OTA: Missa Ad fugam
!!!ONM:	1
!!!OTL:	Kyrie
!!!AGN:	Mass; Kyrie
!!!SCT:	NJE 12.2
!!!SCA:	New Josquin Edition 12.2
!!!voices: 4
!!!voices-OPR:	4
**kern	**text	**kern	**text	**kern	**text	**kern	**text
*staff4	*staff4	*staff3	*staff3	*staff2	*staff2	*staff1	*staff1
*Ivox	*	*Ivox	*	*Ivox	*	*Ivox	*
*I"Bassus	*	*I"Tenor	*	*I"Altus	*	*I"Discantus	*
*I'B	*	*I'T	*	*I'A	*	*I'D	*
*>[A,B,C]	*>[A,B,C]	*>[A,B,C]	*>[A,B,C]	*>[A,B,C]	*>[A,B,C]	*>[A,B,C]	*>[A,B,C]
*>A	*>A	*>A	*>A	*>A	*>A	*>A	*>A
*clefF4	*	*clefGv2	*	*clefGv2	*	*clefG2	*
*k[]	*	*k[]	*	*k[]	*	*k[]	*
*M3/1	*	*M3/1	*	*M3/1	*	*M3/1	*
*met(O)	*	*met(O)	*	*met(O)	*	*met(O)	*
!!section: Kyrie I
!!!OMD: Kyrie I
=1-	=1-	=1-	=1-	=1-	=1-	=1-	=1-
!	!	!	!	!	!	!LO:TX:Z=5:X=-40:t=Tenor in diatessaron sequentibus signis	!
!	!	!	!	!	!	!LO:TX:Z=27:X=80:t=Canon at the lower fourth (S-->T, 7 breves)	!
!	!	!LO:TX:Z=12:X=-40:t=Quaere in suprano	!	!	!	!	!
0.r	.	0.r	.	0A	Ky-	[0.a	Ky-
.	.	.	.	1D	.	.	.
=2	=2	=2	=2	=2	=2	=2	=2
0.r	.	0.r	.	1.A	.	0a]	.
.	.	.	.	2F/	.	.	.
.	.	.	.	1B-	-ri-	1d	.
=3	=3	=3	=3	=3	=3	=3	=3
0.r	.	0.r	.	1A	-e,	1.a	.
.	.	.	.	2r	.	.	.
.	.	.	.	2c\	Ky-	2g/	.
.	.	.	.	2d\	.	1b-	-ri-
.	.	.	.	2e\	-ri-	.	.
=4	=4	=4	=4	=4	=4	=4	=4
0.r	.	0.r	.	0f	-e,	1a	-e,
.	.	.	.	.	.	2r	.
.	.	.	.	.	.	1a	Ky-
.	.	.	.	2r	.	.	.
.	.	.	.	2c\	Ky-	2g/	.
=5	=5	=5	=5	=5	=5	=5	=5
0.r	.	0.r	.	2d\	.	1b-i	-ri-
.	.	.	.	2e\	-ri-	.	.
.	.	.	.	2.f\	-e-	0a	-e,
.	.	.	.	4e\	.	.	.
.	.	.	.	2d\	.	.	.
.	.	.	.	2c\	.	.	.
=6	=6	=6	=6	=6	=6	=6	=6
0.r	.	0.r	.	2d\	.	2r	.
.	.	.	.	2A/	.	1a	Ky-
.	.	.	.	2.c\	-lei-	.	.
.	.	.	.	.	.	2g/	.
.	.	.	.	4B\	.	.	.
.	.	.	.	2G/	.	1b-i	-ri-
.	.	.	.	[2d\	.	.	.
=7	=7	=7	=7	=7	=7	=7	=7
0.r	.	0.r	.	4d\]	.	1a	-e-
.	.	.	.	4c\	.	.	.
.	.	.	.	2A/	.	.	.
.	.	.	.	2B\	.	2g/	-lei-
.	.	.	.	2c\	.	2e/	.
.	.	.	.	2d\	.	1f	.
.	.	.	.	[2A/	.	.	.
=8	=8	=8	=8	=8	=8	=8	=8
0.r	.	[0.e	Ky-	2A/]	.	1e	-son,
.	.	.	.	2.c\	.	.	.
.	.	.	.	.	.	1r	.
.	.	.	.	4B\	.	.	.
.	.	.	.	2G/	.	.	.
.	.	.	.	1A	.	1cc	e-
=9	=9	=9	=9	=9	=9	=9	=9
0E	Ky-	0e]	.	1G	-son,	2.b\	-lei-
.	.	.	.	.	.	4a/	.
.	.	.	.	1r	.	2b\	.
.	.	.	.	.	.	1cc	.
1F	.	1A	.	2r	.	.	.
.	.	.	.	2A/	Ky-	4b\	.
.	.	.	.	.	.	4a/	.
=10	=10	=10	=10	=10	=10	=10	=10
1E	-ri-	1.e	.	2B\	.	1g	-son,-
.	.	.	.	2c\	.	.	.
2.G\	-e,	.	.	2.B\	.	2r	.
.	.	2d\	.	.	.	2.dd\	-Ky-
4F\	.	.	.	4A/	.	.	.
1D	.	1f	-ri-	1d	.	.	.
.	.	.	.	.	.	4cc\	.
.	.	.	.	.	.	2a/	.
=11	=11	=11	=11	=11	=11	=11	=11
1A	Ky-	1e	-e,	2.c\	-ri-	1cc	-ri-
.	.	.	.	4d\	.	.	.
1E	-ri-	2r	.	1e	-e	1b	-e,
.	.	1e	Ky-	.	.	.	.
2.G\	-e-	.	.	2r	.	2r	.
.	.	2d\	.	2B\	e-	[2dd\	Ky-
4F\	.	.	.	.	.	.	.
=12	=12	=12	=12	=12	=12	=12	=12
1D	.	1f	-ri-	1d	-lei-	4dd\]	.
.	.	.	.	.	.	4cc\	.
.	.	.	.	.	.	2a/	.
2.A\	-lei-	0e	-e,	2c\	.	1cc	-ri-
.	.	.	.	4B\	.	.	.
4G\	.	.	.	4A/	.	.	.
1E	-son,	.	.	1G	.	1b	-e
=13	=13	=13	=13	=13	=13	=13	=13
1r	.	2r	.	1A	-son,	1cc	e-
.	.	1e	Ky-	.	.	.	.
1G	e-	.	.	1B	.	1b	-lei-
.	.	2d\	.	.	.	.	.
2.F\	-lei-	1f	-ri-	2r	.	1a	.
.	.	.	.	2c\	e-	.	.
4E\	.	.	.	.	.	.	.
=14	=14	=14	=14	=14	=14	=14	=14
1C	.	1e	-e-	2.c\	-lei-	1g	-son,
.	.	.	.	4B\	.	.	.
2D\	.	2d\	-lei-	2A/	.	2r	.
2E\	.	2B\	.	2G/	.	2g/	e
1AA	.	1c	.	1A	.	2.e/	lei-
.	.	.	.	.	.	4f/	.
=15	=15	=15	=15	=15	=15	=15	=15
0.El	-son.	0.Bl	-son.	0.Gl	-son.	0.gl	-son.
!!LO:LB:i:g=z
=16||	=16||	=16||	=16||	=16||	=16||	=16||	=16||
*>B	*>B	*>B	*>B	*>B	*>B	*>B	*>B
*clefF4	*	*clefGv2	*	*clefGv2	*	*clefG2	*
*k[]	*	*k[]	*	*k[]	*	*k[]	*
*M2/2	*	*M2/2	*	*M2/2	*	*M2/2	*
*met(C|)	*	*met(C|)	*	*met(C|)	*	*met(C|)	*
!LO:TX:Z=12:X=-40:t=Christe in contra alto	!	!	!	!LO:TX:Z=8:X=-40:t=Canon at the lower fourth (A-->B, 12 breves)	!	!LO:TX:Z=12:X=-40:t=Canon at the lower fourth (S-->T, 12 breves)	!
!!section: Christe
!!!OMD: Christe
0r	.	0r	.	0r	.	0a	Chri-
=17	=17	=17	=17	=17	=17	=17	=17
0r	.	0r	.	0r	.	1g	.
.	.	.	.	.	.	[1a	.
=18	=18	=18	=18	=18	=18	=18	=18
0r	.	0r	.	0A	Chri-	2a/]	.
.	.	.	.	.	.	2b\	.
.	.	.	.	.	.	2cc\	.
.	.	.	.	.	.	2a/	.
=19	=19	=19	=19	=19	=19	=19	=19
0r	.	0r	.	1G	.	1b	.
.	.	.	.	[1A	.	1a	-ste,
=20	=20	=20	=20	=20	=20	=20	=20
0r	.	0r	.	2A/]	.	1r	.
.	.	.	.	2B\	.	.	.
.	.	.	.	2c\	.	1a	Chri-
.	.	.	.	2A/	.	.	.
=21	=21	=21	=21	=21	=21	=21	=21
0r	.	0r	.	1B	.	1g	.
.	.	.	.	1A	-ste,	[1a	.
=22	=22	=22	=22	=22	=22	=22	=22
0r	.	0r	.	1r	.	2a/]	.
.	.	.	.	.	.	2b\	.
.	.	.	.	1A	Chri-	2cc\	.
.	.	.	.	.	.	2a/	.
=23	=23	=23	=23	=23	=23	=23	=23
0r	.	0r	.	2G/	-ste	1b	.
.	.	.	.	1.d	.	.	.
.	.	.	.	.	.	1a	-ste
=24	=24	=24	=24	=24	=24	=24	=24
0r	.	0r	.	2c\	e-	1cc	e-
.	.	.	.	1e	-lei-	.	.
.	.	.	.	.	.	[1b	-lei-
.	.	.	.	[2d\	.	.	.
=25	=25	=25	=25	=25	=25	=25	=25
0r	.	0r	.	1d]	.	2b\]	.
.	.	.	.	.	.	2a/	.
.	.	.	.	2c\	.	2cc\	.
.	.	.	.	2e\	.	[2b\	.
=26	=26	=26	=26	=26	=26	=26	=26
0r	.	0r	.	2.d\	.	2b\]	.
.	.	.	.	.	.	2a/	.
.	.	.	.	4c\	.	.	.
.	.	.	.	2A/	.	2cc\	.
.	.	.	.	2B\	.	[2b\	.
=27	=27	=27	=27	=27	=27	=27	=27
0r	.	0r	.	2c\	.	4b\]	.
.	.	.	.	.	.	4a/	.
.	.	.	.	2d\	.	1a	.
.	.	.	.	1B	.	.	.
.	.	.	.	.	.	2g/	.
=28	=28	=28	=28	=28	=28	=28	=28
0r	.	0e	Chri	1A	-son,	2a/	.
.	.	.	.	.	.	2cc\	.
.	.	.	.	2G/	Chri-	2b\	.
.	.	.	.	2E/	.	2g/	.
=29	=29	=29	=29	=29	=29	=29	=29
0r	.	1d	.	1F	.	1a	.
.	.	[1e	.	2E/	-ste	1g	-son,
.	.	.	.	2c\	e-	.	.
=30	=30	=30	=30	=30	=30	=30	=30
0E	Chri-	2e\]	.	2c\	-lei-	0r	.
.	.	2f\	.	4B\	.	.	.
.	.	.	.	4A/	.	.	.
.	.	2g\	.	1G	-son,	.	.
.	.	2e\	.	.	.	.	.
=31	=31	=31	=31	=31	=31	=31	=31
1D	.	1f	.	1d	Chri-	1a	Chri-
[1E	.	1e	ste,	2B\	-ste	1g	-ste
.	.	.	.	[2c\	.	.	.
=32	=32	=32	=32	=32	=32	=32	=32
2E\]	.	1r	.	2c\]	.	1cc	e-
2F\	.	.	.	2A/	e-	.	.
2G\	.	1e	Chri-	2B\	-lei-	2b\	-lei-
2E\	.	.	.	2c\	.	2g/	.
=33	=33	=33	=33	=33	=33	=33	=33
1F	.	1d	.	1A	-son,	1a	.
1E	-ste,	[1e	.	2B\	e-	1g	-son,
.	.	.	.	[2c\	-lei-	.	.
=34	=34	=34	=34	=34	=34	=34	=34
1r	.	2e\]	.	2c\]	.	1cc	Chri-
.	.	2f\	.	2A/	.	.	.
1E	Chri-	2g\	.	2B\	.	2b\	-ste-
.	.	2e\	.	2c\	.	2g/	.
=35	=35	=35	=35	=35	=35	=35	=35
2D\	-ste	1f	.	1F	-son,	2.a/	.
1.A	.	.	.	.	.	.	.
.	.	.	.	.	.	4b\	.
.	.	1e	-ste	2r	.	4cc\	.
.	.	.	.	.	.	4a/	.
.	.	.	.	2c\	e-	2cc\	.
=36	=36	=36	=36	=36	=36	=36	=36
2G\	e-	1g	e-	2d\	-lei-	2b\	e-
1B-i	-lei-	.	.	2G/	.	1dd	-lei-
.	.	[1f	-lei-	2B-\	.	.	.
[2A\	.	.	.	2F/	.	2cc\	.
=37	=37	=37	=37	=37	=37	=37	=37
1A]	.	2f\]	.	2.c\	.	2a/	-son,
.	.	2e\	.	.	.	2cc\	e-
.	.	.	.	4d\	.	.	.
2G\	.	2g\	.	2e\	.	2b\	.
2B-i\	.	[2f\	.	2d\	-son,	2dd\	.
=38	=38	=38	=38	=38	=38	=38	=38
2.A\	.	2f\]	.	2r	.	2.cc\	-lei-
.	.	2e\	.	1e	e-	.	.
4G\	.	.	.	.	.	4b\	.
2E\	.	2g\	.	.	.	2g/	.
2F\	.	[2f\	.	[2d\	-lei-	2a/	.
=39	=39	=39	=39	=39	=39	=39	=39
2G\	.	4f\]	.	4d\]	.	2b\	.
.	.	4e\	.	4c\	.	.	.
2A\	.	1e	.	2.A/	.	2cc\	.
1F	.	.	.	.	.	1a	.
.	.	.	.	4G/	.	.	.
.	.	2d\	.	4A/	.	.	.
.	.	.	.	4B\	.	.	.
=40	=40	=40	=40	=40	=40	=40	=40
0El	-son.	0el	-son.	2c\	.	0gl	-son.
.	.	.	.	2B\	.	.	.
.	.	.	.	1Bl	-son.	.	.
!!LO:LB:i:g=z
=41||	=41||	=41||	=41||	=41||	=41||	=41||	=41||
*>C	*>C	*>C	*>C	*>C	*>C	*>C	*>C
*clefF4	*	*clefGv2	*	*clefGv2	*	*clefG2	*
*k[]	*	*k[]	*	*k[]	*	*k[]	*
*M3/1	*	*M3/1	*	*M3/1	*	*M3/1	*
*met(O|)	*	*met(O|)	*	*met(O|)	*	*met(O|)	*
!	!	!	!	!	!	!LO:TX:Z=10:X=-40:t=Canon at the lower fourth (S-->T, 7 breves)	!
!!section: Kyrie II
!!!OMD: Kyrie II
0.r	.	0.r	.	1A	Ky-	1a	Ky-
.	.	.	.	1c	.	2g/	-ri-
.	.	.	.	.	.	1a	-e
.	.	.	.	1d	-ri-	.	.
.	.	.	.	.	.	2f/	e-
=42	=42	=42	=42	=42	=42	=42	=42
0.r	.	0.r	.	2B\	-e	2g/	-lei-
.	.	.	.	2c\	e-	2e/	.
.	.	.	.	2A/	-lei-	2f/	.
.	.	.	.	2B\	.	2g/	.
.	.	.	.	1c	.	1e	-son,
=43	=43	=43	=43	=43	=43	=43	=43
0.r	.	0.r	.	1d	-son,	2r	.
.	.	.	.	.	.	2d/	e-
.	.	.	.	2r	.	2e/	-lei-
.	.	.	.	2D/	e-	2f/	.
.	.	.	.	2E/	-lei-	2g/	.
.	.	.	.	2F/	.	2d/	.
=44	=44	=44	=44	=44	=44	=44	=44
0.r	.	0.r	.	2G/	.	2e/	.
.	.	.	.	2D/	.	2f/	.
.	.	.	.	2E/	.	2g/	-son,
.	.	.	.	2F/	.	2a/	.
.	.	.	.	2G/	.	2r	.
.	.	.	.	2A/	.	2a/	Ky-
=45	=45	=45	=45	=45	=45	=45	=45
0.r	.	0.r	.	2B-i\	-son,	2g/	.
.	.	.	.	2A/	.	2a/	-ri-
.	.	.	.	2r	.	2f/	-e
.	.	.	.	2c\	Ky-	2e/	e-
.	.	.	.	2Bni\	.	2.g/	-lei-
.	.	.	.	2c\	-ri-	.	.
.	.	.	.	.	.	4e/	.
=46	=46	=46	=46	=46	=46	=46	=46
0.r	.	0.r	.	2A/	-e	2f/	.
.	.	.	.	2G/	e-	2g/	.
.	.	.	.	1c	-lei-	2e/	.
.	.	.	.	.	.	2g/	.
.	.	.	.	2A/	.	2f/	.
.	.	.	.	2B\	.	2d/	.
=47	=47	=47	=47	=47	=47	=47	=47
0.r	.	0.r	.	2c\	.	2e/	.
.	.	.	.	2.d\	.	2f/	.
.	.	.	.	.	.	2g/	.
.	.	.	.	4c\	.	.	.
.	.	.	.	2A/	.	1a	.
.	.	.	.	1B	.	.	.
.	.	.	.	.	.	2g#i/	.
=48	=48	=48	=48	=48	=48	=48	=48
0.r	.	1e	Ky-	2.A/	-son,	1a	-son,
.	.	.	.	4G/	.	.	.
.	.	2d\	-ri-	2F/	.	2r	.
.	.	1e	-e	2E/	e-	2b\	e-
.	.	.	.	1A	-lei-	2.cc\	-lei-
.	.	2c\	e-	.	.	.	.
.	.	.	.	.	.	4b\	.
=49	=49	=49	=49	=49	=49	=49	=49
0.r	.	2d\	-lei-	2F/	.	2a/	.
.	.	2B\	.	2G/	.	2dd\	.
.	.	2c\	.	2A/	.	2cc\	.
.	.	2d\	.	2D/	.	1a	.
.	.	1B	-son,	1E	.	.	.
.	.	.	.	.	.	2g#i/	.
=50	=50	=50	=50	=50	=50	=50	=50
1A	Ky-	2r	.	2F/	-son,	2a/	.
.	.	2A/	e-	2f\	e-	2cc\	.
2G\	-ri-	2B\	-lei-	2g\	-lei-	2b\	.
2A\	-e	2c\	.	2e\	.	2.a/	.
2D\	e-	2d\	.	2f\	.	.	.
.	.	.	.	.	.	4f/	.
2F\	.	2A/	.	2d\	.	2a/	.
=51	=51	=51	=51	=51	=51	=51	=51
1E	-lei-	2B\	.	1e	-son,	1g	-son,
.	.	2c\	.	.	.	.	.
2D\	-son,	2d\	.	2f\	e-	2r	.
2A\	e-	2e\	-son,	2c\	.	2cc\	Ky-
2G\	-lei-	2r	.	2d\	-lei-	2b\	.
2A\	.	2e\	Ky-	2c\	.	2cc\	-ri-
=52	=52	=52	=52	=52	=52	=52	=52
2F\	-son,	2d\	.	2d\	.	2a/	-e
2E\	.	2e\	-ri-	2B\	.	2g/	e-
2r	.	2c\	-e	2A/	-son,	2a/	-lei-
2G\	e-	2B\	e-	2e\	e-	2b\	.
2F\	-lei-	2.d\	-lei-	2f\	-lei-	2a/	.
2G\	.	.	.	2d\	.	2b\	.
.	.	4B\	.	.	.	.	.
=53	=53	=53	=53	=53	=53	=53	=53
2E\	-son,-	2c\	.	2e\	.	2g/	-son,
2D\	.	2d\	.	2f\	.	2r	.
2r	.	2B\	.	1d	-son,	2g/	e-
2D\	e-	2d\	.	.	.	2f/	.
2E\	-lei-	2c\	.	2r	.	2g/	.
2F\	.	2A/	.	2c\	e-	2a/	.
=54	=54	=54	=54	=54	=54	=54	=54
2G\	.	2B\	.	2B\	-lei-	2g/	.
2.A\	.	2c\	.	2A/	.	2.cc\	-lei-
.	.	2d\	.	2B\	.	.	.
4G\	.	.	.	.	.	4b\	.
2E\	.	1e	.	2c\	.	2g/	.
1F	.	.	.	2.A/	.	1a	.
.	.	2d\	.	.	.	.	.
.	.	.	.	4B\	.	.	.
=55	=55	=55	=55	=55	=55	=55	=55
0.E	.	[0.el	-son.	4c\	.	2g/	.
.	.	.	.	4A/	.	.	.
.	.	.	.	1e	.	2cc\	.
.	.	.	.	.	.	2b\	.
.	.	.	.	2c\	.	1a	.
.	.	.	.	1B	.	.	.
.	.	.	.	.	.	2g#i/	.
=56	=56	=56	=56	=56	=56	=56	=56
0.AAl	-son.	0.e]	.	0.Al	-son.	0.al	-son.
==	==	==	==	==	==	==	==
*-	*-	*-	*-	*-	*-	*-	*-
!!!RDF**kern: l=long note in original notation
!!!RDF**kern: i=editorial accidental
!!!ENC: Jesse Rodin; Victoria Chang 2011/04/06/; JR 2013/02 (text)
!!!END: 2013/03/08/
!!!SMS: Davison, Missa sine nomine
!!!EED:	Jesse Rodin
!!!EEV:	2013/03/08/
!!attribution-level@Jos: 1 (secure)
!!!ONB:	Translated from MusicXML and edited on 2013/04/08/ by Craig Sapp
!!muse2ps: T^@{OPR}^u^@{ONM}{. }@{OTL}^C^@{COM}\n@{SCT}^i2I100v85,90,85,130Q16
!!!ONB: April 2013 Concert
